!! 00000] TT[WS
!!!OTL: Da liaoxian
!!!ARE: Asia, China, Shanxi Zuoquan
!! Ethnic Group: Han
!! WI, 267
!!!SCT: J0316
!!!YEM: Copyright 1995, estate of Helmut Schaffrath.
**kern
*ICvox
*Ivox
*M2/4
*k[f#]
*G:
{8a
8b
8a
8g
=1
4d
4d}
=2
{8a
8b
8a
8g
=3
2d}
=4
{8a
8b
8a
8g
=5
2d}
=6
{8a
8a
8e
8g
=7
8a
8b
8a
8g}
=8
{8e
8e
8a
8e
=9
4.d
8e
=10
2c}
=11
{8c
8B
8d
8B
=12
2A}
==
!!!AGN: Xiaodiao. XÅshi
!!!ONB: ESAC (Essen Associative Code) Database: CHINA
!!!AMT: simple duple
!!!AIN: vox
!!!EED: Helmut Schaffrath
!!!EEV: 1.0
*-
